Numix-GalliumOS/32/status/stock_signature-ok.svg

<?xml version="1.0" encoding="UTF-8" standalone="no"?>
<!-- Created with Inkscape (http://www.inkscape.org/) -->

<svg
   xmlns:dc="http://purl.org/dc/elements/1.1/"
   xmlns:cc="http://creativecommons.org/ns#"
   xmlns:rdf="http://www.w3.org/1999/02/22-rdf-syntax-ns#"
   xmlns:svg="http://www.w3.org/2000/svg"
   xmlns="http://www.w3.org/2000/svg"
   xmlns:sodipodi="http://sodipodi.sourceforge.net/DTD/sodipodi-0.dtd"
   xmlns:inkscape="http://www.inkscape.org/namespaces/inkscape"
   width="32"
   height="32"
   id="svg1307"
   sodipodi:version="0.32"
   inkscape:version="0.91 r"
   version="1.0"
   sodipodi:docname="stock_signature-ok.svg"
   inkscape:export-filename="/home/pinheiro/Documents/pics/new oxygen/svg/pen.png"
   inkscape:export-xdpi="90"
   inkscape:export-ydpi="90"
   inkscape:output_extension="org.inkscape.output.svgz.inkscape">
  <defs
     id="defs1309">
    <clipPath
       id="clipPath-408241621">
      <g
         transform="translate(0,-1004.3622)"
         id="g3616">
        <path
           style="fill:#1890d0"
           inkscape:connector-curvature="0"
           d="m -24,13 c 0,1.105 -0.672,2 -1.5,2 -0.828,0 -1.5,-0.895 -1.5,-2 0,-1.105 0.672,-2 1.5,-2 0.828,0 1.5,0.895 1.5,2 z"
           transform="matrix(15.333333,0,0,11.5,414.99999,878.8622)"
           id="path3618" />
      </g>
    </clipPath>
    <clipPath
       id="clipPath-408241621-1">
      <g
         transform="translate(0,-1004.3622)"
         id="g3616-3">
        <path
           style="fill:#1890d0"
           inkscape:connector-curvature="0"
           d="m -24,13 c 0,1.105 -0.672,2 -1.5,2 -0.828,0 -1.5,-0.895 -1.5,-2 0,-1.105 0.672,-2 1.5,-2 0.828,0 1.5,0.895 1.5,2 z"
           transform="matrix(15.333333,0,0,11.5,414.99999,878.8622)"
           id="path3618-3" />
      </g>
    </clipPath>
    <clipPath
       id="clipPath-408241621-8">
      <g
         id="g3616-0"
         transform="translate(0,-1004.3622)">
        <path
           id="path3618-0"
           transform="matrix(15.333333,0,0,11.5,414.99999,878.8622)"
           d="m -24,13 c 0,1.105 -0.672,2 -1.5,2 -0.828,0 -1.5,-0.895 -1.5,-2 0,-1.105 0.672,-2 1.5,-2 0.828,0 1.5,0.895 1.5,2 z"
           inkscape:connector-curvature="0"
           style="fill:#1890d0" />
      </g>
    </clipPath>
    <clipPath
       id="clipPath-408241621-1-6">
      <g
         id="g3616-3-2"
         transform="translate(0,-1004.3622)">
        <path
           id="path3618-3-7"
           transform="matrix(15.333333,0,0,11.5,414.99999,878.8622)"
           d="m -24,13 c 0,1.105 -0.672,2 -1.5,2 -0.828,0 -1.5,-0.895 -1.5,-2 0,-1.105 0.672,-2 1.5,-2 0.828,0 1.5,0.895 1.5,2 z"
           inkscape:connector-curvature="0"
           style="fill:#1890d0" />
      </g>
    </clipPath>
  </defs>
  <sodipodi:namedview
     id="base"
     pagecolor="#ffffff"
     bordercolor="#666666"
     borderopacity="1.0"
     inkscape:pageopacity="0.0"
     inkscape:pageshadow="2"
     inkscape:zoom="4.8085578"
     inkscape:cx="4.8024553"
     inkscape:cy="59.224773"
     inkscape:current-layer="layer1"
     showgrid="true"
     inkscape:document-units="px"
     inkscape:grid-bbox="true"
     guidetolerance="0.1px"
     showguides="true"
     inkscape:guide-bbox="true"
     inkscape:window-width="1920"
     inkscape:window-height="1056"
     inkscape:window-x="0"
     inkscape:window-y="24"
     inkscape:window-maximized="1">
    <inkscape:grid
       type="xygrid"
       id="grid4154" />
  </sodipodi:namedview>
  <metadata
     id="metadata1312">
    <rdf:RDF>
      <cc:Work
         rdf:about="">
        <dc:format>image/svg+xml</dc:format>
        <dc:type
           rdf:resource="http://purl.org/dc/dcmitype/StillImage" />
        <cc:license
           rdf:resource="http://creativecommons.org/licenses/GPL/2.0/" />
        <dc:contributor>
          <cc:Agent>
            <dc:title>Oxygen team</dc:title>
          </cc:Agent>
        </dc:contributor>
        <dc:title />
      </cc:Work>
      <cc:License
         rdf:about="http://creativecommons.org/licenses/LGPL/2.1/">
        <cc:permits
           rdf:resource="http://web.resource.org/cc/Reproduction" />
        <cc:permits
           rdf:resource="http://web.resource.org/cc/Distribution" />
        <cc:requires
           rdf:resource="http://web.resource.org/cc/Notice" />
        <cc:permits
           rdf:resource="http://web.resource.org/cc/DerivativeWorks" />
        <cc:requires
           rdf:resource="http://web.resource.org/cc/ShareAlike" />
        <cc:requires
           rdf:resource="http://web.resource.org/cc/SourceCode" />
      </cc:License>
    </rdf:RDF>
  </metadata>
  <g
     id="layer1"
     inkscape:label="Layer 1"
     inkscape:groupmode="layer"
     transform="translate(0,-96)">
    <path
       style="fill:#3370d0;fill-opacity:1;fill-rule:evenodd;stroke:none;stroke-width:1px;stroke-linecap:butt;stroke-linejoin:miter;stroke-opacity:1"
       d="M 17.216797 6.5 C 16.39362 6.502 15.479227 6.5672456 14.474609 6.6972656 C 13.341622 6.8438956 12.083954 7.0677906 10.699219 7.3691406 C 9.4613298 7.6542606 8.2858117 7.9684669 7.1738281 8.3105469 C 6.0828111 8.6445269 5.0446956 9.0201269 4.0585938 9.4355469 C 2.0863768 10.250127 1.0688004 10.918143 1.0058594 11.439453 C 0.94291338 11.977063 1.414786 12.282169 2.421875 12.355469 C 2.9463961 12.396369 3.5762088 12.37245 4.3105469 12.28125 C 4.5623151 12.25695 5.8769511 12.085712 5.8769531 12.044922 C 5.8769487 11.996122 5.8761915 12.044301 4.9257812 11.681641 C 4.5870526 11.552191 4.5220092 11.560246 4.3300781 11.472656 C 4.2285506 11.426156 4.0967341 11.403491 4.0390625 11.306641 C 4.0111265 11.259641 3.9701651 11.205885 4.0332031 11.140625 C 4.5135948 10.643305 7.5150299 9.645715 8.1777344 9.453125 C 9.2897186 9.127295 9.3324829 9.129535 10.654297 8.828125 C 13.276909 8.257975 14.689012 7.90491 16.136719 7.9375 C 17.668311 7.9863 18.095683 7.9782569 18.095703 8.6542969 C 18.049023 8.9888069 17.892644 9.1436887 17.734375 9.3554688 C 16.832174 10.463239 14.516337 11.77302 9.4179688 15.03125 C 9.3759988 15.07215 9.3329676 15.108375 9.2910156 15.140625 C 9.2700156 15.164925 9.2597556 15.190544 9.2597656 15.214844 C 9.2597556 15.304544 11.904971 15.835938 12.177734 15.835938 C 12.471458 15.835938 12.734041 15.770925 12.964844 15.640625 C 13.279547 15.436955 13.72061 15.184202 14.287109 14.882812 C 14.874563 14.581433 15.190546 14.39231 16.050781 13.96875 C 17.078834 13.46373 18.108633 12.990681 19.136719 12.550781 C 20.164768 12.110951 21.213153 11.692109 22.283203 11.292969 C 24.926787 10.339919 25.213005 10.273768 26.388672 10.023438 C 26.974527 9.8986675 27.027058 9.8886719 27.341797 9.8886719 C 27.82433 9.8886719 27.990604 9.8969644 28.064453 10.146484 C 28.107749 10.292472 27.994563 10.393881 27.839844 10.511719 L 28.65625 11.328125 C 29.410336 10.808647 30.349572 10.468233 30.904297 9.7285156 C 30.961017 9.6529156 30.990957 9.5537444 30.998047 9.4589844 C 31.006447 9.3473144 30.991427 9.2254462 30.935547 9.1289062 C 30.824352 8.9366163 30.623457 8.8072688 30.431641 8.6992188 C 30.229096 8.5851387 29.997592 8.5226919 29.769531 8.4824219 C 29.521336 8.4384219 29.309333 8.4327313 29.015625 8.4570312 C 27.169267 8.5711012 24.545379 9.2751725 21.146484 10.570312 C 19.887603 11.042743 18.734578 11.499573 17.685547 11.939453 C 16.65746 12.379323 15.713721 12.810805 14.853516 13.234375 C 14.664672 13.364575 14.496463 13.429688 14.349609 13.429688 C 14.265669 13.429688 14.222656 13.411559 14.222656 13.380859 C 14.222641 13.323759 14.296479 13.249776 14.443359 13.160156 C 16.121822 12.068676 17.43279 11.149781 18.376953 10.400391 C 19.34206 9.6428506 19.971871 9.0433556 20.265625 8.6035156 C 20.370505 8.4162456 20.423788 8.2283856 20.423828 8.0410156 C 20.423808 7.6093356 20.181763 7.2645862 19.699219 7.0039062 C 19.174675 6.6862462 18.45049 6.5182631 17.527344 6.5019531 C 17.425149 6.4999531 17.321959 6.5 17.216797 6.5 z M 27.263672 10.908203 C 26.664028 11.297204 24.98889 12.388446 23.978516 13.152344 C 23.500194 13.513994 23.045914 13.906804 22.599609 14.308594 C 22.343681 14.538988 22.10286 14.787351 21.855469 15.027344 L 22.5 15.671875 L 27.263672 10.908203 z M 17.048828 20.369141 C 17.043546 20.376218 17.034525 20.387505 17.029297 20.394531 C 16.791441 20.748521 16.65687 20.992986 16.625 21.128906 C 15.504105 21.684186 13.273548 22.62584 10.904297 25.5 C 14.90201 23.65312 15.026297 23.359442 17.197266 22.357422 C 17.541855 22.671332 17.541143 22.669242 17.542969 22.669922 C 17.882815 22.927722 18.304283 22.932417 18.699219 22.929688 C 18.994506 22.927632 19.253502 22.887416 19.509766 22.833984 C 18.69669 22.018966 17.877213 21.198317 17.048828 20.369141 z "
       transform="translate(0,96)"
       id="path4759" />
    <path
       sodipodi:nodetypes="ccc"
       id="path1987"
       d="m -21.591741,-220.6239 0,-2.79471 0,2.79471 z"
       style="fill:#ffffff;fill-opacity:0.75688076;fill-rule:nonzero;stroke:none;stroke-width:0.5;stroke-linecap:round;stroke-linejoin:round;stroke-miterlimit:4;stroke-dasharray:none;stroke-dashoffset:4;stroke-opacity:1"
       inkscape:connector-curvature="0" />
    <path
       sodipodi:nodetypes="ccc"
       id="path1747"
       d="m 26.204559,-335.9479 0,-2.79471 0,2.79471 z"
       style="fill:#ffffff;fill-opacity:0.75688076;fill-rule:nonzero;stroke:none;stroke-width:0.5;stroke-linecap:round;stroke-linejoin:round;stroke-miterlimit:4;stroke-dasharray:none;stroke-dashoffset:4;stroke-opacity:1"
       inkscape:connector-curvature="0" />
    <rect
       style="opacity:0.57786889;fill:#ffffff;fill-opacity:1;fill-rule:nonzero;stroke:none;stroke-width:3.63199997;stroke-linecap:round;stroke-linejoin:round;stroke-miterlimit:4;stroke-dasharray:none;stroke-dashoffset:4;stroke-opacity:1"
       id="rect1327"
       width="1"
       height="0"
       x="15.057414"
       y="-308.20486" />
    <path
       id="path4145"
       d="m 22.5,114.5 5.25,-5.25 2.25,2.25 -7.5,7.5 c -1.538085,-1.53808 -2.961915,-2.9707 -4.5,-4.50879 L 20.25,112.25 Z"
       style="fill:#4db147;fill-opacity:1"
       inkscape:connector-curvature="0" />
  </g>
</svg>

<svg xmlns="http://www.w3.org/2000/svg" viewBox="0 0 32 32">
 <g transform="translate(0,-96)">
  <path d="m 17.217 6.5 c -0.823 0.002 -1.738 0.067 -2.742 0.197 c -1.133 0.147 -2.391 0.371 -3.775 0.672 c -1.238 0.285 -2.413 0.599 -3.525 0.941 c -1.091 0.334 -2.129 0.71 -3.115 1.125 c -1.972 0.815 -2.99 1.483 -3.053 2 c -0.063 0.538 0.409 0.843 1.416 0.916 c 0.525 0.041 1.154 0.017 1.889 -0.074 c 0.252 -0.024 1.566 -0.196 1.566 -0.236 c 0 -0.049 -0.001 -0.001 -0.951 -0.363 c -0.339 -0.129 -0.404 -0.121 -0.596 -0.209 c -0.102 -0.046 -0.233 -0.069 -0.291 -0.166 c -0.028 -0.047 -0.069 -0.101 -0.006 -0.166 c 0.48 -0.497 3.482 -1.495 4.145 -1.688 c 1.112 -0.326 1.155 -0.324 2.477 -0.625 c 2.623 -0.57 4.03 -0.923 5.482 -0.891 c 1.532 0.049 1.959 0.041 1.959 0.717 c -0.047 0.335 -0.203 0.489 -0.361 0.701 c -0.902 1.108 -3.218 2.418 -8.316 5.676 c -0.042 0.041 -0.085 0.077 -0.127 0.109 c -0.021 0.024 -0.031 0.05 -0.031 0.074 c 0 0.09 2.645 0.621 2.918 0.621 c 0.294 0 0.556 -0.065 0.787 -0.195 c 0.315 -0.204 0.756 -0.456 1.322 -0.758 c 0.587 -0.301 0.903 -0.491 1.764 -0.914 c 1.028 -0.505 2.058 -0.978 3.086 -1.418 c 1.028 -0.44 2.076 -0.859 3.146 -1.258 c 2.644 -0.953 2.93 -1.019 4.105 -1.27 c 0.586 -0.125 0.638 -0.135 0.953 -0.135 c 0.483 0 0.649 0.008 0.723 0.258 c 0.043 0.146 -0.07 0.247 -0.225 0.365 l 0.816 0.816 c 0.754 -0.519 1.693 -0.86 2.248 -1.6 c 0.057 -0.076 0.087 -0.175 0.094 -0.27 c 0.008 -0.112 -0.007 -0.234 -0.063 -0.33 c -0.111 -0.192 -0.312 -0.322 -0.504 -0.43 c -0.203 -0.114 -0.434 -0.177 -0.662 -0.217 c -0.248 -0.044 -0.46 -0.05 -0.754 -0.025 c -1.846 0.114 -4.47 0.818 -7.869 2.113 c -1.259 0.472 -2.412 0.929 -3.461 1.369 c -1.028 0.44 -1.972 0.871 -2.832 1.295 c -0.189 0.13 -0.357 0.195 -0.504 0.195 c -0.084 0 -0.127 -0.018 -0.127 -0.049 c 0 -0.057 0.074 -0.131 0.221 -0.221 c 1.678 -1.091 2.989 -2.01 3.934 -2.76 c 0.965 -0.758 1.595 -1.357 1.889 -1.797 c 0.105 -0.187 0.158 -0.375 0.158 -0.563 c 0 -0.432 -0.242 -0.776 -0.725 -1.037 c -0.525 -0.318 -1.249 -0.486 -2.172 -0.502 c -0.102 -0.002 -0.205 -0.002 -0.311 -0.002 z m 10.05 4.408 c -0.6 0.389 -2.275 1.48 -3.285 2.244 c -0.478 0.362 -0.933 0.754 -1.379 1.156 c -0.256 0.23 -0.497 0.479 -0.744 0.719 l 0.645 0.645 l 4.764 -4.764 z m -10.215 9.461 c -0.005 0.007 -0.014 0.018 -0.02 0.025 c -0.238 0.354 -0.372 0.598 -0.404 0.734 c -1.121 0.555 -3.351 1.497 -5.721 4.371 c 3.998 -1.847 4.122 -2.141 6.293 -3.143 c 0.345 0.314 0.344 0.312 0.346 0.313 c 0.34 0.258 0.761 0.262 1.156 0.26 c 0.295 -0.002 0.554 -0.042 0.811 -0.096 c -0.813 -0.815 -1.633 -1.636 -2.461 -2.465 z" transform="translate(0,96)" style="fill:#3370d0;fill-opacity:1;stroke:none;fill-rule:evenodd"/>
  <path d="m 22.5 114.5 5.25 -5.25 2.25 2.25 -7.5 7.5 c -1.538 -1.538 -2.962 -2.971 -4.5 -4.509 l 2.25 -2.241" style="fill:#4db147;fill-opacity:1"/>
 </g>
</svg>
